X: 9
T: Gongchan dang laile
L: 1/8
M: 3/4
K: C
D2G2 [I:setbarnb 1]| 
c4 | 
d4- | 
d2g2 | 
d/ g/d3- | 
d2c A | 
G Gz2 | 
DG3 | 
c/ d/c3 | 
d4- | 
d3^c | 
d4- | 
d2g2 | 
c cG4 | 
[M:2/4]d/ g/d3 | 
cz3 | 
D2G2 | 
c4 | 
d4- | 
d2g2 | 
d2c A | 
d4 | 
[M:3/4]c AG2z2 | 
D2G4 | 
[M:2/4]d cc2 | 
d3^c | 
d4- | 
d2g2 | 
D2G c | 
[M:3/4]cG2c d/ c/ z | 
c G G z c d | 
[M:2/4]c G G z | 
c d | 
c4 | 
d4 | 
cz3 |]

@@@ Tune index: 8677
